X:1
T:Title
L:1/8
M:4/4
K:Ab
V:1 treble nm="Grand Piano"
V:1
 z4 z2 z[Q:1/4=100] C | A2 FF C2 DD | C6- CC | A2 FF C2 DE | D6- DD | B2 BB BAGA | %6
[M:7/8] B- B3 c3 |[M:1/8] F |[M:4/4] FGAB c2 F2 | d3 c B4 | B2 A2 G2 F2 | =E4 E3 F | FGAB c2 F2 | %13
 d3 c B4 | B2 A2 GF=EG |[M:7/8] F-F-F- F- F3 |[M:1/8] C |[M:4/4] A2 FF C2 DD | C6- CC | %19
 A2 FF C2 DE | D6- DD | B2 BB BAGA |[M:15/8] B3- B c2- c z2 z6 |] %23

